!!!COM: Bach, Johann Sebastian
!!!CDT: 1685/03/31-1750/07/28
!!!OTL: Sinfonia 13 in A minor
!!!SCA: BWV 799
**kern	**kern	**kern
*staff3	*staff2	*staff1
*I"	*I"	*I"
*clefF4	*clefG2	*clefG2
*k[]	*k[]	*k[]
*a:	*a:	*a:
*M3/8	*M3/8	*M3/8
*MM60	*MM60	*MM60
=1	=1	=1
8AAL	4.r	4a
8A	.	.
8G#XJ	.	8b
=2	=2	=2
8AL	4.r	4cc
8E	.	.
8FJ	.	8dd
=3	=3	=3
8DL	4.r	8cc
8E	.	4b
8EEJ	.	.
=4	=4	=4
8AA	4.r	16aLL
.	.	16b
16ALL	.	16cc
16B	.	16dd
16c	.	16ee
16AJJ	.	16ff#XJJ
=5	=5	=5
8eL	4e	16ggLL
.	.	16ff#X
8E	.	16gg
.	.	16aa
8d#XJ	8f#X	16bb
.	.	16cccJJ
=6	=6	=6
8eL	4g	16bbLL
.	.	16aa
8B	.	16gg
.	.	16ff#X
8cJ	8a	16ee
.	.	16dd#XJJ
=7	=7	=7
8AL	8g	16eeLL
.	.	16ff#XJJ
8B	4f#X	8.dd#XL
8BBJ	.	.
.	.	16eeJk
!!LO:LB:g=original
=8	=8	=8
4E	16eLL	4ee
.	16f#X	.
.	16g	.
.	16a	.
8r	16b	[8gg
.	16cc#XJJ	.
=9	=9	=9
4.r	[4.ddn	16ggLL]
.	.	16bb-X
.	.	16aa
.	.	16gg
.	.	16ffn
.	.	16eeJJ
=10	=10	=10
4.r	16ddLL]	[4.ff
.	16ee	.
.	16dd	.
.	16cc	.
.	16b	.
.	16aJJ	.
=11	=11	=11
4.r	4.g#X	16ffLL]
.	.	16ff
.	.	16ee
.	.	16dd
.	.	16cc
.	.	16bJJ
=12	=12	=12
4.r	16aLL	16ccLL
.	16f	16dd
.	16e	16cc
.	16d	16b
.	16c	16a
.	16BJJ	16g#XJJ
=13	=13	=13
4AA	16cLL	[4.a
.	16B	.
.	16c	.
.	16d	.
8BB	16e	.
.	16fJJ	.
=14	=14	=14
4C	16eLL	8.aL]
.	16d	.
.	16c	.
.	16B	16bL
*	*clefF4	*
8D	16A	16cc
.	16G#XJJ	16ddJJ
!!LO:LB:g=original
=15	=15	=15
8C	16ALL	16eeLL
.	16BJJ	16ff
4BB	4G#Xm	16ee
.	.	16dd
.	.	16cc
.	.	16bJJ
=16	=16	=16
16AALL	8AL	4.cc
16BB	.	.
*	*clefG2	*
16C	8e	.
16D	.	.
16E	[8aJ	.
16F#XJJ	.	.
=17	=17	=17
16GLL	8aL]	4.b
16A	.	.
16B	8d	.
16c	.	.
16d	[8gJ	.
16eJJ	.	.
=18	=18	=18
4.f	8gL]	16aLL
.	.	16g
.	16fL	16a
.	16g	16b
.	16a	16cc
.	16bJJ	16ddJJ
=19	=19	=19
4.e	8ccL	16eeLL
.	.	16ff
.	16eL	16gg
.	16f	16aa
.	16g	16bb
.	16aJJ	16cccJJ
=20	=20	=20
4.d	8bL	16ffLL
.	.	16aa
.	8a	16gg
.	.	16ff
.	8bJ	16ee
.	.	16ddJJ
=21	=21	=21
16CLL	8ccL	8eeL
16E	.	.
16GJ	8e	8cc
8c	.	.
.	8fJ	8ddJ
16BJk	.	.
!!LO:LB:g=original
=22	=22	=22
16cLL	4g	4ee
16G	.	.
16EJ	.	.
8C	.	.
.	8a	8ff
16BBJk	.	.
=23	=23	=23
16CLL	8g	8ee
16E	.	.
16G	4f	4dd
16c	.	.
16B	.	.
16cJJ	.	.
=24	=24	=24
8CL	8e	16ccLL
.	.	16g
8c	8r	16a
.	.	16b
8BJ	8r	16cc
.	.	16ddJJ
*clefG2	*	*
=25	=25	=25
16ALL	8r	4ee
16a	.	.
16g	8ccL	.
16f	.	.
16e	8ddJ	8ff
16dJJ	.	.
=26	=26	=26
16cLL	4ee	4gg
16e	.	.
16gJ	.	.
8cc	.	.
.	8ff	8aa
16bJk	.	.
=27	=27	=27
16ccLL	8ee	8gg
16c	.	.
16cc	[4dd	4ff
16b	.	.
16a	.	.
16bJJ	.	.
=28	=28	=28
8ccL	16ddLL]	[4.ee
.	16dd	.
8c	16cc	.
.	16b-X	.
8c#XJ	16a	.
.	16gJJ	.
!!LO:LB:g=original
=29	=29	=29
16dLL	8f	8eeL]
16g	.	.
16f	[4a	8dd
16e	.	.
16d	.	8eeJ
16c#XJJ	.	.
*clefF4	*	*
=30	=30	=30
16dLL	8aL]	4ff
16e	.	.
16d	8a	.
16c	.	.
16B-X	8cc#XJ	8gg
16AJJ	.	.
=31	=31	=31
16GLL	4dd	8ff
16F	.	.
16G	.	4ee
16B-X	.	.
16A	8cc#X	.
16GJJ	.	.
=32	=32	=32
16FLL	8dd	16ddLL
16G	.	16a
16F	8r	16b
16E	.	16cc#X
16D	8r	16dd
16C#XJJ	.	16eeJJ
=33	=33	=33
16DLL	8r	4ff
16F	.	.
16AJ	8ddL	.
8d	.	.
.	8eeJ	8gg
16c#XJk	.	.
=34	=34	=34
16dLL	4ff	4aa
16A	.	.
16FJ	.	.
8D	.	.
.	8gg	8bb-X
16C#XJk	.	.
!!LO:LB:g=original
=35	=35	=35
16DLL	8ff	8aa
16F	.	.
16A	[4ee	4ggM
16d	.	.
16c#X	.	.
16dJJ	.	.
=36	=36	=36
8DL	8eeL]	16ffLL
.	.	32aaL
.	.	32ggJ
8F	8dd	16ff
.	.	16aa
8AJ	8cc#XJ	16ee
.	.	16aaJJ
=37	=37	=37
16DLL	16ddLL	[4.ff
32FL	32ddL	.
32EJ	32ccnJ	.
16D	16b	.
16F	16dd	.
16C	16a	.
16FJJ	16ddJJ	.
=38	=38	=38
8BBL	8gL	16ffLL]
.	.	32ggL
.	.	32ffJ
8C	8cc	16ee
.	.	16gg
8GJ	8bJ	16dd
.	.	16ggJJ
=39	=39	=39
16cLL	16ccLL	[4.ee
32eL	32ccL	.
32dJ	32bJ	.
16c	16a	.
16e	16cc	.
16B	16g	.
16eJJ	16ccJJ	.
=40	=40	=40
8AL	8f#XL	16eeLL]
.	.	32ddL
.	.	32ccJ
8B	8g	16b
.	.	16dd
8dJ	8f#J	16a
.	.	16ddJJ
!!LO:LB:g=original
=41	=41	=41
8GL	4g	16bLL
.	.	16b
8GG	.	16ddJ
.	.	8gg
8AAJ	8r	.
.	.	16ff#XJk
=42	=42	=42
4BB	8r	16ggLL
.	.	16dd
.	8GL	16bJ
.	.	8g
8C	8AJ	.
.	.	16f#XJk
=43	=43	=43
8BB	4B	16gLL
.	.	16d
4AA	.	16e
.	.	16d
.	8c	16e
.	.	16f#XJJ
=44	=44	=44
8GGL	8BL	16gLL
.	.	16dd
*	*clefF4	*
8G	[8A	16cc
.	.	16b
8F#XJ	8A_J	16cc
.	.	16ddJJ
=45	=45	=45
4G	16ALL]	8bL
.	16G	.
.	16A	8cc
.	16G	.
8Fn	16A	8ddJ
.	16BJJ	.
*	*clefG2	*
=46	=46	=46
4E	16cLL	8gL
.	16g	.
.	16f	8a
.	16e	.
8D	16f	8bJ
.	16gJJ	.
!!LO:LB:g=original
=47	=47	=47
16CLL	8e	4cc
16E	.	.
16F#X	4d	.
16E	.	.
16F#	.	[8b
16G#XJJ	.	.
=48	=48	=48
16ALL	8cL	16bKL]
16E	.	8a
16D	8B	.
16C	.	8a
16D	8BJ	.
16EJJ	.	16g#XJk
*	*clefF4	*
=49	=49	=49
4C	8EL	16aLL
.	.	16cc
.	8A	16eeJ
.	.	8aa
8E	8BJ	.
.	.	16gg#XJk
=50	=50	=50
8AL	4c	16aaLL
.	.	16ee
8Gn	.	16ccJ
.	.	8a
8FJ	8d	.
.	.	16g#XJk
=51	=51	=51
4E	8c	16aLL
.	.	16cc
.	[4B	16ee
.	.	16aa
8D	.	16gg#X
.	.	16aaJJ
=52	=52	=52
4C	16BLL]	8eeL
.	16E	.
.	16F#X	8a
.	16G#X	.
8BB	16A	8bJ
.	16G#JJ	.
!!LO:LB:g=original
=53	=53	=53
4AA	16ALL	4cc
*	*clefG2	*
.	16c	.
.	16eJ	.
.	8a	.
8BB	.	8dd
.	16g#XJk	.
=54	=54	=54
4C	16aLL	4ee
.	16e	.
.	16cJ	.
*	*clefF4	*
.	8A	.
8D	.	8ff
.	16G#XJk	.
=55	=55	=55
8C	16ALL	8ee
*	*clefG2	*
.	16c	.
4BB	16e	4dd
.	16a	.
.	16g#X	.
.	16aJJ	.
*	*clefF4	*
=56	=56	=56
8AAL	16ALL	8cc
*	*clefG2	*
.	32ccL	.
.	32bJ	.
8C	16a	[4ee
.	16cc	.
8AAJ	16gn	.
.	16ccJJ	.
=57	=57	=57
8DL	16f#XLL	8ee]
.	32bL	.
.	32aJ	.
8BB	16g#X	[4dd
.	16b	.
8AAJ	16f#X	.
.	16bJJ	.
=58	=58	=58
8GG#XL	[4.e	16ddLL]
.	.	32eeL
.	.	32ddJ
8AA	.	16cc
.	.	16ee
8GGnJ	.	16b
.	.	16eeJJ
!!LO:LB:g=original
=59	=59	=59
8FF#XL	8e]	16aLL
.	.	32ddL
.	.	32ccJ
8GGn	[4d	16b
.	.	16dd
8FJ	.	16a
.	.	16ddJJ
=60	=60	=60
[4.E	16dLL]	8g#XL
.	32eL	.
.	32dJ	.
.	16c	8a
.	16e	.
.	16B	8bJ
.	16eJJ	.
*	*clefF4	*
=61	=61	=61
16ELL]	8AL	4cc
32EL	.	.
32DJ	.	.
*	*clefG2	*
16C	8a	.
16E	.	.
16BB	8g#XJ	8dd
16EJJ	.	.
=62	=62	=62
16AALL	8a	8cc
32BL	.	.
32AJ	.	.
16G#X	[4d	[4b
16B	.	.
16E	.	.
16G#JJ	.	.
=63	=63	=63
8CL	16dLL]	8bL]
.	32eeL	.
.	32ddJ	.
8D	16cc	8aa
.	16ee	.
8EJ	16b	8gg#XJ
.	16eeJJ	.
=64	=64	=64
4.AA;	4.cc#X	4.aa;
==	==	==
*-	*-	*-
!!!system-decoration: [(s1,s2,s3)]
!!!URL-pdf: https://vmirror.imslp.org/files/imglnks/usimg/5/55/IMSLP396136-PMLP03268-Bach,_Johann_Sebastian-Werke_Breitkopf_Band_3_02_BWV_787-801.pdf#page=20 Bach-Gesellschaft Ausgabe, Band 3 (pp.19-42) Leipzig: Breitkopf und Härtel, 1853. Plate B.W. III.
!!!URL-youtube: https://www.youtube.com/watch?v=Lao8x1bHWEg&t=1523s Malinowski
!!!SMS: Bach-Gesellschaft Ausgabe, Band 3 (pp.19-42) Leipzig: Breitkopf und Härtel, 1853. Plate B.W. III.
!!!ONB: Open-score format
!!!ENC: Craig Stuart Sapp
!!!END: 2024/03/29
!!!EED: Craig Stuart Sapp
!!!EEV: 2024/03/29
!!!title: @{OTL} (@{SCA})
!!!filter-keyboard: sab2gs
!!!voices: 3
!!!AGN: polyphony
!!!AST: baroque
!!!AMT: simple triple
!!!AIN: cemb; clavi
